images/btc-coin-ver.svg

<svg width="132" height="152" viewBox="0 0 132 152" fill="none" xmlns="http://www.w3.org/2000/svg">
<g clip-path="url(#clip0_565_448)">
<path d="M58.5517 134.967C31.8945 119.108 10.2845 81.1063 10.2845 50.0882C10.2845 19.07 31.8945 6.78142 58.5517 22.6408C85.2089 38.5002 106.819 76.5019 106.819 107.52C106.819 138.538 85.2089 150.827 58.5517 134.967Z" fill="white" stroke="#0D0B33" stroke-width="1.72736"/>
<path fill-rule="evenodd" clip-rule="evenodd" d="M82.6356 86.5371C83.6415 79.3414 78.5138 72.2004 71.5023 65.3635L73.7768 56.1424L68.222 51.3373L66.0077 60.3155C64.5494 59.0535 63.05 57.7915 61.5601 56.5387L63.7902 47.502L58.2402 42.6996L55.9642 51.9162C54.7558 50.9008 53.5696 49.9018 52.4181 48.9064L52.4245 48.8772L44.7661 42.2476L43.2888 48.2435C43.2888 48.2435 47.409 51.7126 47.322 51.7299C49.5712 53.6768 49.9792 55.631 49.9096 56.9532L47.3189 67.4583C47.4739 67.5935 47.6748 67.7752 47.8962 68.0053L47.311 67.4994L43.6779 82.2133C43.4027 82.8434 42.7052 83.6241 41.133 82.2672C41.1884 82.3923 37.0967 78.7734 37.0967 78.7734L34.3398 84.5236L41.568 90.777C42.3838 91.484 43.1897 92.1921 43.9868 92.8925L43.9874 92.8929L43.9894 92.8947C44.505 93.3477 45.0168 93.7974 45.5253 94.2415L43.2271 103.571L48.774 108.372L51.0516 99.1452C52.5652 100.494 54.0362 101.782 55.4755 103.025L53.2074 112.208L58.7605 117.012L61.0587 107.704C70.528 115.241 77.6502 118.518 80.6443 110.359C83.0595 103.791 80.5257 97.7344 75.5435 91.8609C79.1718 92.9859 81.9049 91.8079 82.634 86.5362L82.6356 86.5371ZM53.9308 93.4109L53.9307 93.4109L53.9301 93.4103C53.5247 93.0526 53.1625 92.7328 52.8531 92.4654L55.9025 80.1103C56.2808 80.4377 56.743 80.8243 57.2665 81.2622L57.2666 81.2623C61.9529 85.1822 71.5567 93.2154 69.9476 99.7561L69.946 99.7552C68.3695 106.153 58.4605 97.4085 53.9308 93.4109ZM58.2086 75.2559C61.9882 78.6024 70.2269 85.8969 71.6621 80.0865C73.1294 74.1417 65.1181 67.4692 61.2055 64.2105C60.7657 63.8442 60.3776 63.521 60.0607 63.2468L57.2959 74.4532C57.5576 74.6795 57.8646 74.9513 58.2086 75.2559Z" fill="black"/>
<path d="M58.5516 22.6408C45.3678 14.7973 33.4186 13.8386 24.7075 18.6256L34.2877 13.1777C53.1372 2.45885 83.6983 20.6408 102.548 53.7882C121.397 86.9356 121.397 122.496 102.548 133.215L93.334 138.455C93.3346 138.448 93.3352 138.442 93.3357 138.436C101.685 133.307 106.819 122.638 106.819 107.52C106.819 76.5019 85.2088 38.5002 58.5516 22.6408Z" fill="#79EFBD" stroke="#0D0B33" stroke-width="1.72736"/>
<path d="M106.509 100.938L116.376 95.4654C116.238 90.1854 115.637 86.3734 113.602 78.1606L103.188 83.9521C104.86 89.6618 105.997 95.3755 106.509 100.938Z" fill="#0D0B33"/>
<path d="M98.7189 71.548L108.375 65.898C98.0535 43.7566 90.1667 33.3386 71.8142 18.9028L61.7953 24.6954C77.1993 35.0491 90.6271 52.6361 98.7189 71.548Z" fill="#0D0B33"/>
</g>
<defs>
<clipPath id="clip0_565_448">
<rect width="132" height="152" fill="white"/>
</clipPath>
</defs>
</svg>

<svg xmlns="http://www.w3.org/2000/svg" width="132" height="152" fill="none"><g clip-path="url(#a)"><path fill="#fff" stroke="#0D0B33" stroke-width="1.727" d="M58.552 134.967c-26.657-15.859-48.267-53.86-48.267-84.879 0-31.018 21.61-43.307 48.267-27.447 26.657 15.86 48.267 53.86 48.267 84.879 0 31.018-21.61 43.307-48.267 27.447Z"/><path fill="#000" fill-rule="evenodd" d="M82.636 86.537c1.005-7.196-4.122-14.337-11.134-21.174l2.275-9.22-5.555-4.806-2.214 8.978a413.172 413.172 0 0 0-4.448-3.776l2.23-9.037-5.55-4.802-2.276 9.216a334.264 334.264 0 0 1-3.546-3.01l.007-.029-7.659-6.63-1.477 5.996s4.12 3.47 4.033 3.487c2.25 1.947 2.657 3.901 2.588 5.223l-2.591 10.505c.155.136.356.317.577.547l-.585-.506-3.633 14.714c-.275.63-.973 1.411-2.545.054.055.125-4.036-3.494-4.036-3.494l-2.757 5.75 7.228 6.254a468.74 468.74 0 0 1 2.419 2.115l.002.003 1.536 1.347-2.298 9.329 5.547 4.801 2.278-9.227a377.655 377.655 0 0 0 4.423 3.88l-2.268 9.183 5.553 4.804 2.299-9.308c9.469 7.537 16.591 10.814 19.585 2.655 2.415-6.568-.118-12.625-5.1-18.498 3.628 1.125 6.36-.053 7.09-5.325l.002.001ZM53.93 93.411c-.406-.358-.768-.678-1.078-.946l3.05-12.355c.378.328.84.714 1.364 1.152 4.686 3.92 14.29 11.953 12.68 18.494h-.001c-1.576 6.397-11.485-2.347-16.015-6.345Zm4.278-18.155c3.78 3.346 12.018 10.64 13.453 4.83 1.467-5.944-6.544-12.617-10.457-15.876-.44-.366-.827-.689-1.144-.963l-2.765 11.206c.262.227.569.498.913.803Z" clip-rule="evenodd"/><path fill="#79EFBD" stroke="#0D0B33" stroke-width="1.727" d="M58.552 22.64c-13.184-7.843-25.133-8.801-33.844-4.014l9.58-5.448c18.85-10.72 49.41 7.463 68.26 40.61 18.849 33.148 18.849 68.708 0 79.427l-9.214 5.24.002-.019c8.349-5.129 13.483-15.798 13.483-30.916 0-31.018-21.61-69.02-48.267-84.88Z"/><path fill="#0D0B33" d="m106.509 100.938 9.867-5.473c-.138-5.28-.739-9.092-2.774-17.304l-10.414 5.791c1.672 5.71 2.809 11.424 3.321 16.986ZM98.719 71.548l9.656-5.65c-10.322-22.141-18.208-32.56-36.56-46.995l-10.02 5.792C77.2 35.05 90.627 52.636 98.72 71.548Z"/></g><defs><clipPath id="a"><path fill="#fff" d="M0 0h132v152H0z"/></clipPath></defs></svg>
